**harm	**harte	**timestamp	**phrase	**leadinstrument	**kern
*M4/4	*M4/4	*	*	*	*
*A:	*A:	*	*	*	*A:
1r;	N	0	.	r	1r;
=1	=1	=1	=1	=1	=1
*>A_intro	*>A_intro	*>A_intro	*>A_intro	*>A_intro	*>A_intro
1I	A:maj	1.153	newline	guitar	1A 1cc# 1ee
=2	=2	=2	=2	=2	=2
1V	E:maj	3.049	.	guitar	1E 1g# 1b
=3	=3	=3	=3	=3	=3
*>B_chorus	*>B_chorus	*>B_chorus	*>B_chorus	*>B_chorus	*>B_chorus
1I	A:maj	4.946	newline	voice	1A 1cc# 1ee
=4	=4	=4	=4	=4	=4
1I	A:maj	6.841	.	voice	1A 1cc# 1ee
=5	=5	=5	=5	=5	=5
1IV	D:maj	8.735	.	voice	1D 1f# 1a
=6	=6	=6	=6	=6	=6
1V	E:maj	10.629	.	voice	1E 1g# 1b
=7	=7	=7	=7	=7	=7
1I	A:maj	12.523	newline	voice	1A 1cc# 1ee
=8	=8	=8	=8	=8	=8
1I	A:maj	14.421	.	voice	1A 1cc# 1ee
=9	=9	=9	=9	=9	=9
2IV	D:maj	16.32	.	voice	2D 2f# 2a
2V	E:maj	17.269	.	voice	2E 2g# 2b
=10	=10	=10	=10	=10	=10
*>A_trans	*>A_trans	*>A_trans	*>A_trans	*>A_trans	*>A_trans
1I	A:maj	18.218	->newline	guitar	1A 1cc# 1ee
=11	=11	=11	=11	=11	=11
1V	E:maj	20.124	.	guitar	1E 1g# 1b
=12	=12	=12	=12	=12	=12
*>C_verse	*>C_verse	*>C_verse	*>C_verse	*>C_verse	*>C_verse
2IV	D:maj	22.03	newline	voice	2D 2f# 2a
2-VIIm7	G:7	22.973	.	voice	2G 2b 2dd 2ff#
=13	=13	=13	=13	=13	=13
1Im7	A:7	23.917	.	voice	1A 1cc# 1ee 1gg#
=14	=14	=14	=14	=14	=14
2IV	D:maj	25.805	.	voice	2D 2f# 2a
2-VIIm7	G:7	26.748	.	voice	2G 2b 2dd 2ff#
=15	=15	=15	=15	=15	=15
1Im7	A:7	27.692	.	voice	1A 1cc# 1ee 1gg#
=16	=16	=16	=16	=16	=16
2IV	D:maj	29.579	newline	voice	2D 2f# 2a
2-VIIm7	G:7	30.512	.	voice	2G 2b 2dd 2ff#
=17	=17	=17	=17	=17	=17
1Im7	A:7	31.444	.	voice	1A 1cc# 1ee 1gg#
=18	=18	=18	=18	=18	=18
2ii	B:sus4(b7)	33.308	.	voice	2B 2dd 2ff#
4ii7	B:min7	34.241	.	voice	4B 4dd 4ff# 4aa
4II7	B:7	34.707	.	voice	4B 4dd# 4ff# 4aa
=19	=19	=19	=19	=19	=19
1v	E:min	35.173	.	voice	1E 1g 1b
=20	=20	=20	=20	=20	=20
*>B_chorus	*>B_chorus	*>B_chorus	*>B_chorus	*>B_chorus	*>B_chorus
1I	A:maj	37.037	newline	voice	1A 1cc# 1ee
=21	=21	=21	=21	=21	=21
1I	A:maj	38.934	.	voice	1A 1cc# 1ee
=22	=22	=22	=22	=22	=22
1IV	D:maj	40.831	.	voice	1D 1f# 1a
=23	=23	=23	=23	=23	=23
1V	E:maj	42.728	.	voice	1E 1g# 1b
=24	=24	=24	=24	=24	=24
1I	A:maj	44.624	newline	voice	1A 1cc# 1ee
=25	=25	=25	=25	=25	=25
1I	A:maj	46.504	.	voice	1A 1cc# 1ee
=26	=26	=26	=26	=26	=26
2IV	D:maj	48.383	.	voice	2D 2f# 2a
2V	E:maj	49.323	.	voice	2E 2g# 2b
=27	=27	=27	=27	=27	=27
*>A_trans	*>A_trans	*>A_trans	*>A_trans	*>A_trans	*>A_trans
1I	A:maj	50.262	->newline	guitar	1A 1cc# 1ee
=28	=28	=28	=28	=28	=28
1V	E:maj	52.183	.	guitar	1E 1g# 1b
=29	=29	=29	=29	=29	=29
*>C_verse	*>C_verse	*>C_verse	*>C_verse	*>C_verse	*>C_verse
2IV	D:maj	54.105	newline	voice	2D 2f# 2a
2-VIIm7	G:7	55.036	.	voice	2G 2b 2dd 2ff#
=30	=30	=30	=30	=30	=30
1Im7	A:7	55.967	.	voice	1A 1cc# 1ee 1gg#
=31	=31	=31	=31	=31	=31
2IV	D:maj	57.829	.	voice	2D 2f# 2a
2-VIIm7	G:7	58.76	.	voice	2G 2b 2dd 2ff#
=32	=32	=32	=32	=32	=32
1Im7	A:7	59.691	.	voice	1A 1cc# 1ee 1gg#
=33	=33	=33	=33	=33	=33
2IV	D:maj	61.553	newline	voice	2D 2f# 2a
2-VIIm7	G:7	62.5	.	voice	2G 2b 2dd 2ff#
=34	=34	=34	=34	=34	=34
1Im7	A:7	63.447	.	voice	1A 1cc# 1ee 1gg#
=35	=35	=35	=35	=35	=35
2ii	B:sus4(b7)	65.34	.	voice	2B 2dd 2ff#
4ii7	B:min7	66.287	.	voice	4B 4dd 4ff# 4aa
4II7	B:7	66.76	.	voice	4B 4dd# 4ff# 4aa
=36	=36	=36	=36	=36	=36
1v	E:min	67.234	.	voice	1E 1g 1b
=37	=37	=37	=37	=37	=37
*>B_chorus	*>B_chorus	*>B_chorus	*>B_chorus	*>B_chorus	*>B_chorus
1I	A:maj	69.127	newline	voice	1A 1cc# 1ee
=38	=38	=38	=38	=38	=38
1I	A:maj	71.031	.	voice	1A 1cc# 1ee
=39	=39	=39	=39	=39	=39
1IV	D:maj	72.935	.	voice	1D 1f# 1a
=40	=40	=40	=40	=40	=40
1V	E:maj	74.839	.	voice	1E 1g# 1b
=41	=41	=41	=41	=41	=41
1I	A:maj	76.743	newline	voice	1A 1cc# 1ee
=42	=42	=42	=42	=42	=42
1I	A:maj	78.657	.	voice	1A 1cc# 1ee
=43	=43	=43	=43	=43	=43
2IV	D:maj	80.572	.	voice	2D 2f# 2a
2V	E:maj	81.529	.	voice	2E 2g# 2b
=44	=44	=44	=44	=44	=44
*>A2_trans	*>A2_trans	*>A2_trans	*>A2_trans	*>A2_trans	*>A2_trans
1Im7	A:7	82.486	->newline	voice	1A 1cc# 1ee 1gg#
=45	=45	=45	=45	=45	=45
1Im7	A:7	84.36	.	voice	1A 1cc# 1ee 1gg#
=46	=46	=46	=46	=46	=46
*>D_bridge	*>D_bridge	*>D_bridge	*>D_bridge	*>D_bridge	*>D_bridge
1Im7	A:7	86.234	newline	voice	1A 1cc# 1ee 1gg#
=47	=47	=47	=47	=47	=47
1Im7	A:7	88.112	.	voice	1A 1cc# 1ee 1gg#
=48	=48	=48	=48	=48	=48
1Im7	A:7	89.991	.	voice	1A 1cc# 1ee 1gg#
=49	=49	=49	=49	=49	=49
1Im7	A:7	91.87	.	voice	1A 1cc# 1ee 1gg#
=50	=50	=50	=50	=50	=50
1Im7	A:7	93.749	newline	voice	1A 1cc# 1ee 1gg#
=51	=51	=51	=51	=51	=51
1Im7	A:7	95.598	.	voice	1A 1cc# 1ee 1gg#
=52	=52	=52	=52	=52	=52
1Im7	A:7	97.448	.	voice	1A 1cc# 1ee 1gg#
=53	=53	=53	=53	=53	=53
1Im7	A:7	99.298	.	voice	1A 1cc# 1ee 1gg#
=54	=54	=54	=54	=54	=54
*B-:	*B-:	*	*	*	*B-:
1V7	F:7	101.148	newline	guitar	1F 1a 1cc 1ee-
=55	=55	=55	=55	=55	=55
1V7	F:7	102.996	.	guitar	1F 1a 1cc 1ee-
=56	=56	=56	=56	=56	=56
1V7	F:7	104.843	.	guitar	1F 1a 1cc 1ee-
=57	=57	=57	=57	=57	=57
1V7	F:7	106.691	.	guitar	1F 1a 1cc 1ee-
=58	=58	=58	=58	=58	=58
1V7	F:7	108.539	newline	guitar	1F 1a 1cc 1ee-
=59	=59	=59	=59	=59	=59
1V7	F:7	110.386	.	guitar	1F 1a 1cc 1ee-
=60	=60	=60	=60	=60	=60
1V7	F:7	112.233	.	guitar	1F 1a 1cc 1ee-
=61	=61	=61	=61	=61	=61
4vii	A:1	114.08	.	guitar	4A 4cc 4ee
4ii	C:1	114.541	.	guitar	4C 4e- 4g
2vi	G:1	115.003	.	guitar	2G 2b- 2dd
=62	=62	=62	=62	=62	=62
*>C2_verse	*>C2_verse	*>C2_verse	*>C2_verse	*>C2_verse	*>C2_verse
2IV	E-:maj	115.927	newline	voice	2E- 2g 2b-
2-VIIm7	A-:7	116.856	.	voice	2A- 2cc 2ee- 2gg
=63	=63	=63	=63	=63	=63
1Im7	B-:7	117.785	.	voice	1B- 1dd 1ff 1aa
=64	=64	=64	=64	=64	=64
2IV	E-:maj	119.644	.	voice	2E- 2g 2b-
2Im7	B-:7	120.573	.	voice	2B- 2dd 2ff 2aa
=65	=65	=65	=65	=65	=65
1-VIIm7	A-:7	121.502	.	voice	1A- 1cc 1ee- 1gg
=66	=66	=66	=66	=66	=66
2IV	E-:maj	123.361	newline	voice	2E- 2g 2b-
2-VIIm7	A-:7	124.295	.	voice	2A- 2cc 2ee- 2gg
=67	=67	=67	=67	=67	=67
2IV	E-:maj	125.228	.	voice	2E- 2g 2b-
2III7	D:7	126.162	.	voice	2D 2f# 2a 2cc
=68	=68	=68	=68	=68	=68
2vi	G:sus4	127.096	.	voice	2G 2b- 2dd
2VIM7	G:maj7	128.03	.	voice	2G 2b 2dd 2ff
=69	=69	=69	=69	=69	=69
2vii	A:sus4(b7)	128.964	.	voice	2A 2cc 2ee
4vii7	A:min7	129.898	.	voice	4A 4cc 4ee 4gg
4VII7	A:7	130.365	.	voice	4A 4cc# 4ee 4gg
=70	=70	=70	=70	=70	=70
1v7	F:min7	130.832	.	voice	1F 1a- 1cc 1ee-
=71	=71	=71	=71	=71	=71
*>B_chorus	*>B_chorus	*>B_chorus	*>B_chorus	*>B_chorus	*>B_chorus
1I	B-:maj	132.699	newline	voice	1B- 1dd 1ff
=72	=72	=72	=72	=72	=72
1I	B-:maj	134.594	.	voice	1B- 1dd 1ff
=73	=73	=73	=73	=73	=73
1IV	E-:maj	136.488	.	voice	1E- 1g 1b-
=74	=74	=74	=74	=74	=74
1V	F:maj	138.382	.	voice	1F 1a 1cc
=75	=75	=75	=75	=75	=75
1I	B-:maj	140.277	newline	voice	1B- 1dd 1ff
=76	=76	=76	=76	=76	=76
1I	B-:maj	142.152	.	voice	1B- 1dd 1ff
=77	=77	=77	=77	=77	=77
2IV	E-:maj	144.027	.	voice	2E- 2g 2b-
2V	F:maj	144.964	.	voice	2F 2a 2cc
=78	=78	=78	=78	=78	=78
*>A2_trans	*>A2_trans	*>A2_trans	*>A2_trans	*>A2_trans	*>A2_trans
1I	B-:maj	145.902	newline	voice	1B- 1dd 1ff
=79	=79	=79	=79	=79	=79
2IV	E-:maj	147.796	.	voice	2E- 2g 2b-
2V	F:maj	148.743	.	voice	2F 2a 2cc
=80	=80	=80	=80	=80	=80
*>E_outro	*>E_outro	*>E_outro	*>E_outro	*>E_outro	*>E_outro
1IV	E-:sus4(b7,9)	149.69	newline	voice	1E- 1g 1b-
=81	=81	=81	=81	=81	=81
1IV	E-:sus4(b7,9)	151.584	.	voice	1E- 1g 1b-
=82	=82	=82	=82	=82	=82
1I	B-:maj6	153.478	.	voice	1B- 1dd 1ff
=83	=83	=83	=83	=83	=83
1I	B-:maj6	155.373	.	voice	1B- 1dd 1ff
=84	=84	=84	=84	=84	=84
1ivc	E-:min6/5	157.267	newline	voice	1e- 1g- 1B-
=85	=85	=85	=85	=85	=85
1ivc	E-:min/5	159.163	.	voice	1e- 1g- 1B-
=86	=86	=86	=86	=86	=86
1I	B-:maj	161.059	.	voice	1B- 1dd 1ff
=87	=87	=87	=87	=87	=87
1I	B-:maj	162.954	.	voice	1B- 1dd 1ff
1r;	N	168.879	.	r	1r;
1r;	N	171.337	.	r	1r;
*-	*-	*-	*-	*-	*-
!!!OTL: Bluebirds Over The Mountain
!!!COC: The Beach Boys
!!!BillboardChartDate: 1969/01/11
!!!BillboardPeak: 61
!!!BillboardWeeksOnChart: 6
!!!SampleTargetRank: 63
!!!SampleActualRank: 62
!!!SampleID#: 0427
!!!RDF**harmony: **recip + pitch class of root + harmonic quality
!!!RDF**harte: Chris Harte's syntax, used by MIREX
!!!RDF**phrase: newline = linebreak in original McGill transcription
!!!RDF**timestamp: McGill audio timestamp in seconds
!!!RDF**leadinstrument: original McGill primary instrumentation annotation
!!!RDT: 2017/01/12/
!!!ENC: Nathaniel Condit-Schultz
!!!EST: Awating manual error checking and editing.
